X:1830
T:Bourree a Berot
Z:abc transcription Simon Wascher
N:please mail errors to: simon.wascher@chello.at
M:2/4
L:1/8
K:Dm
D|B3G|c3A|Ad cB|A/2B/2A/2G/2 A^F|
B3G|c3A|Ad cB|1A3:|2A4||
|:G/2^F/2G/2A/2 BG|dc BA|G/2^F/2G/2A/2 BG|^F2 D2|
G3/2A/2 BG|dc BA|G/2^F/2G/2A/2 G/2^F/2D/2^F/2|1G4:|2G3|]


